images/item-team-img6.svg

<svg width="40" height="40" viewBox="0 0 40 40" fill="none" xmlns="http://www.w3.org/2000/svg">
<g id="communication 1">
<path id="Vector" d="M3.30803 34.1919C3.42525 34.3091 3.58423 34.375 3.75 34.375H11.875C12.0408 34.375 12.1998 34.3091 12.317 34.1919L13.75 32.7589V38.125C13.75 38.2908 13.8159 38.4497 13.9331 38.5669C14.0503 38.6841 14.2092 38.75 14.375 38.75H25.625C25.7908 38.75 25.9497 38.6841 26.0669 38.5669C26.1841 38.4497 26.25 38.2908 26.25 38.125V32.7589L27.683 34.1919C27.8002 34.3091 27.9592 34.375 28.125 34.375H36.25C36.4158 34.375 36.5748 34.3091 36.692 34.1919L38.567 32.3169C38.6842 32.1997 38.75 32.0408 38.75 31.875V30C38.75 29.8342 38.6842 29.6753 38.5669 29.5581C38.4497 29.4409 38.2908 29.375 38.125 29.375H35.625C35.625 29.2092 35.5592 29.0503 35.4419 28.9331C35.3247 28.8159 35.1658 28.75 35 28.75H33.75C33.6471 28.75 33.5458 28.7754 33.4551 28.824C33.3644 28.8725 33.287 28.9427 33.23 29.0283L32.3267 30.3833L29.2194 28.3118L27.8027 25.8325C27.0767 24.5555 25.8775 23.6152 24.4642 23.2147L23.0453 22.8093C23.504 22.1734 23.7506 21.4091 23.75 20.625V17.5C23.7506 16.8227 23.5378 16.1624 23.1418 15.6129C22.7457 15.0634 22.1866 14.6527 21.5438 14.4392L19.9039 13.8925C19.4866 13.7534 19.0422 13.7154 18.6074 13.7817C18.1725 13.848 17.7597 14.0167 17.4028 14.2739C17.046 14.5311 16.7554 14.8694 16.5549 15.261C16.3545 15.6525 16.25 16.0861 16.25 16.526V20.625C16.2494 21.4091 16.496 22.1734 16.9547 22.8093L15.5358 23.2147C14.1225 23.6152 12.9233 24.5555 12.1973 25.8325L10.7806 28.3118L7.67334 30.3833L6.77002 29.0283C6.71295 28.9427 6.63562 28.8725 6.54491 28.824C6.45419 28.7754 6.35289 28.75 6.25 28.75H5C4.83424 28.75 4.67527 28.8159 4.55806 28.9331C4.44085 29.0503 4.375 29.2092 4.375 29.375H1.875C1.70924 29.375 1.55027 29.4409 1.43306 29.5581C1.31585 29.6753 1.25 29.8342 1.25 30V31.875C1.25 32.0408 1.31583 32.1997 1.43303 32.3169L3.30803 34.1919ZM33.125 31.4392L34.0845 30H34.375V31.875H35.625V30.625H37.5V31.6161L35.9911 33.125H33.125V31.4392ZM17.5 16.526C17.5 16.2842 17.5575 16.0458 17.6676 15.8306C17.7778 15.6154 17.9376 15.4294 18.1337 15.288C18.3299 15.1466 18.5568 15.0539 18.7958 15.0174C19.0349 14.981 19.2791 15.0018 19.5085 15.0783L21.1486 15.625C21.4398 15.7218 21.7044 15.8852 21.9214 16.1022C22.1384 16.3192 22.3018 16.5838 22.3986 16.875H17.5V16.526ZM17.5 18.125H22.5V20.625C22.5 21.288 22.2366 21.9239 21.7678 22.3928C21.2989 22.8616 20.663 23.125 20 23.125C19.337 23.125 18.7011 22.8616 18.2322 22.3928C17.7634 21.9239 17.5 21.288 17.5 20.625V18.125ZM19.8874 26.875H20.1126L21.1965 32.2946L20 33.4911L18.8035 32.2946L19.8874 26.875ZM19.2693 24.303C19.7517 24.399 20.2483 24.399 20.7307 24.303L20.2019 25.625H19.7981L19.2693 24.303ZM8.125 31.5845L11.5967 29.27C11.6774 29.2162 11.7445 29.1443 11.7927 29.0601L13.2826 26.4527C13.8473 25.4594 14.7799 24.7281 15.8792 24.4167L17.7542 23.881L18.7257 26.3096L17.5121 32.3774C17.492 32.4783 17.497 32.5826 17.5268 32.6811C17.5566 32.7796 17.6103 32.8692 17.683 32.9419L19.558 34.8169C19.6752 34.9342 19.8342 35 20 35C20.1658 35 20.3248 34.9342 20.442 34.8169L22.317 32.9419C22.3897 32.8692 22.4434 32.7796 22.4732 32.6811C22.503 32.5826 22.508 32.4783 22.4879 32.3774L21.2743 26.3096L22.2458 23.881L24.1207 24.4167C25.22 24.7281 26.1527 25.4594 26.7174 26.4527L28.2073 29.0601C28.2555 29.1443 28.3226 29.2162 28.4033 29.27L31.875 31.5845V33.125H28.3839L26.067 30.8081C25.9796 30.7207 25.8682 30.6611 25.747 30.637C25.6257 30.6129 25.5 30.6253 25.3858 30.6726C25.2716 30.7199 25.174 30.8 25.1053 30.9028C25.0367 31.0055 25 31.1264 25 31.25V37.5H15V31.25C15 31.1264 14.9633 31.0055 14.8947 30.9028C14.826 30.8 14.7284 30.7199 14.6142 30.6726C14.5 30.6253 14.3743 30.6129 14.253 30.637C14.1318 30.6611 14.0204 30.7207 13.933 30.8081L11.6161 33.125H8.125V31.5845ZM2.5 30.625H4.375V31.875H5.625V30H5.91553L6.875 31.4392V33.125H4.00887L2.5 31.6161V30.625Z" fill="#1E8E31"/>
<path id="Vector_2" d="M1.875 25.625H3.75V27.5C3.75 27.6658 3.81585 27.8247 3.93306 27.9419C4.05027 28.0591 4.20924 28.125 4.375 28.125H9.375C9.54076 28.125 9.69973 28.0591 9.81694 27.9419C9.93415 27.8247 10 27.6658 10 27.5V25.625H11.875C12.0408 25.625 12.1997 25.5591 12.3169 25.4419C12.4341 25.3247 12.5 25.1658 12.5 25V22.5C12.4991 21.6715 12.1695 20.8772 11.5837 20.2913C10.9978 19.7055 10.2035 19.3759 9.375 19.375H4.375C3.54649 19.3759 2.75218 19.7055 2.16633 20.2913C1.58048 20.8772 1.25094 21.6715 1.25 22.5V25C1.25 25.1658 1.31585 25.3247 1.43306 25.4419C1.55027 25.5591 1.70924 25.625 1.875 25.625ZM8.75 26.875H5V24.375C5 23.8777 5.19754 23.4008 5.54917 23.0492C5.90081 22.6975 6.37772 22.5 6.875 22.5C7.37228 22.5 7.84919 22.6975 8.20083 23.0492C8.55246 23.4008 8.75 23.8777 8.75 24.375V26.875ZM2.5 22.5C2.50056 22.0029 2.69829 21.5263 3.0498 21.1748C3.4013 20.8233 3.87789 20.6256 4.375 20.625H9.375C9.87211 20.6256 10.3487 20.8233 10.7002 21.1748C11.0517 21.5263 11.2494 22.0029 11.25 22.5V24.375H10C10 23.5462 9.67076 22.7513 9.08471 22.1653C8.49866 21.5792 7.7038 21.25 6.875 21.25C6.0462 21.25 5.25134 21.5792 4.66529 22.1653C4.07924 22.7513 3.75 23.5462 3.75 24.375H2.5V22.5Z" fill="#1E8E31"/>
<path id="Vector_3" d="M6.875 25.625C7.22018 25.625 7.5 25.3452 7.5 25C7.5 24.6548 7.22018 24.375 6.875 24.375C6.52982 24.375 6.25 24.6548 6.25 25C6.25 25.3452 6.52982 25.625 6.875 25.625Z" fill="#1E8E31"/>
<path id="Vector_4" d="M32.5 16.25C32.0029 16.2506 31.5263 16.4483 31.1748 16.7998C30.8233 17.1513 30.6256 17.6279 30.625 18.125V25.625C30.6256 26.1221 30.8233 26.5987 31.1748 26.9502C31.5263 27.3017 32.0029 27.4994 32.5 27.5H36.25C36.7471 27.4994 37.2237 27.3017 37.5752 26.9502C37.9267 26.5987 38.1244 26.1221 38.125 25.625V18.125C38.1244 17.6279 37.9267 17.1513 37.5752 16.7998C37.2237 16.4483 36.7471 16.2506 36.25 16.25H32.5ZM36.875 18.125V25.625C36.8748 25.7907 36.8089 25.9496 36.6917 26.0667C36.5746 26.1839 36.4157 26.2498 36.25 26.25H32.5C32.3343 26.2498 32.1754 26.1839 32.0583 26.0667C31.9411 25.9496 31.8752 25.7907 31.875 25.625V18.125C31.8752 17.9593 31.9411 17.8004 32.0583 17.6833C32.1754 17.5661 32.3343 17.5002 32.5 17.5H32.8661L33.308 17.9419C33.4252 18.0591 33.5842 18.125 33.75 18.125H35C35.1658 18.125 35.3248 18.0591 35.442 17.9419L35.8839 17.5H36.25C36.4157 17.5002 36.5746 17.5661 36.6917 17.6833C36.8089 17.8004 36.8748 17.9593 36.875 18.125Z" fill="#1E8E31"/>
<path id="Vector_5" d="M5.625 18.125H13.125C13.6221 18.1244 14.0987 17.9267 14.4502 17.5752C14.8017 17.2237 14.9994 16.7471 15 16.25V8.01778C15.0007 7.77145 14.9525 7.52743 14.8582 7.29985C14.764 7.07227 14.6255 6.86565 14.4508 6.69194L12.0581 4.29921C11.8844 4.12455 11.6778 3.98608 11.4502 3.89181C11.2226 3.79754 10.9786 3.74934 10.7323 3.75001H5.625C5.12789 3.75058 4.65131 3.9483 4.2998 4.29981C3.9483 4.65132 3.75057 5.1279 3.75 5.62501V16.25C3.75057 16.7471 3.9483 17.2237 4.2998 17.5752C4.65131 17.9267 5.12789 18.1244 5.625 18.125ZM11.875 5.88391L12.8661 6.87501H11.875V5.88391ZM5 5.62501C5.00019 5.4593 5.0661 5.30044 5.18327 5.18327C5.30044 5.06611 5.4593 5.0002 5.625 5.00001H10.625V7.50001C10.625 7.66577 10.6909 7.82474 10.8081 7.94195C10.9253 8.05916 11.0842 8.12501 11.25 8.12501H13.75V16.25C13.7498 16.4157 13.6839 16.5746 13.5667 16.6917C13.4496 16.8089 13.2907 16.8748 13.125 16.875H5.625C5.4593 16.8748 5.30044 16.8089 5.18327 16.6917C5.0661 16.5746 5.00019 16.4157 5 16.25V5.62501Z" fill="#1E8E31"/>
<path id="Vector_6" d="M12.5 14.375H6.25V15.625H12.5V14.375Z" fill="#1E8E31"/>
<path id="Vector_7" d="M12.5 11.875H8.75V13.125H12.5V11.875Z" fill="#1E8E31"/>
<path id="Vector_8" d="M7.5 11.875H6.25V13.125H7.5V11.875Z" fill="#1E8E31"/>
<path id="Vector_9" d="M12.5 9.375H10.625V10.625H12.5V9.375Z" fill="#1E8E31"/>
<path id="Vector_10" d="M9.375 9.375H6.25V10.625H9.375V9.375Z" fill="#1E8E31"/>
<path id="Vector_11" d="M9.375 6.875H6.25V8.125H9.375V6.875Z" fill="#1E8E31"/>
<path id="Vector_12" d="M33.2211 2.9433L32.4142 1.56012C32.366 1.4775 32.2995 1.40705 32.2199 1.35418C32.1402 1.30131 32.0494 1.26744 31.9545 1.25517C31.8597 1.24289 31.7633 1.25255 31.6728 1.2834C31.5823 1.31424 31.5 1.36545 31.4324 1.43308L25.2541 7.61136L22.8448 8.81601C22.7547 8.86102 22.6769 8.92725 22.6181 9.00901L22.6179 9.00884L22.6127 9.016L22.6119 9.01706L21.14 11.0531C21.0731 11.1456 21.0328 11.2547 21.0235 11.3686C21.0143 11.4824 21.0364 11.5966 21.0875 11.6987L21.9404 13.4045C21.9923 13.5083 22.0721 13.5956 22.1708 13.6567C22.2695 13.7177 22.3833 13.75 22.4994 13.75H24.6131L26.9404 18.4045C26.977 18.478 27.0278 18.5435 27.0898 18.5973C27.1518 18.6511 27.2238 18.6922 27.3017 18.7181C27.3796 18.7441 27.4618 18.7544 27.5437 18.7486C27.6256 18.7427 27.7055 18.7208 27.7789 18.684L29.0289 18.059C29.1327 18.0071 29.22 17.9273 29.281 17.8286C29.3421 17.7299 29.3744 17.6161 29.3744 17.5V14.375C29.3744 14.278 29.3518 14.1823 29.3084 14.0955L28.3952 12.2691L36.4211 9.97598C36.5127 9.94982 36.597 9.90307 36.6678 9.83932C36.7385 9.77556 36.7938 9.69649 36.8293 9.60813C36.8648 9.51977 36.8796 9.42446 36.8727 9.32948C36.8658 9.23451 36.8372 9.14237 36.7892 9.06011L35.6858 7.16855L35.777 7.10775C36.3035 6.75696 36.6735 6.21576 36.8093 5.59786C36.945 4.97997 36.836 4.3335 36.5051 3.79432C36.1742 3.25514 35.6471 2.86523 35.0347 2.70653C34.4223 2.54783 33.7722 2.6327 33.2211 2.9433ZM22.8856 12.5L22.3749 11.4785L23.0266 10.577L23.9881 12.5H22.8856ZM23.9629 9.65452L25.3448 8.96353L26.6608 11.5955L25.2789 12.2865L23.9629 9.65452ZM28.1244 17.1137L27.7789 17.2865L25.8379 13.4045L27.2198 12.7135L28.1244 14.5226V17.1137ZM27.8264 11.1315L26.3848 8.24845L31.743 2.89026L35.3042 8.99507L27.8264 11.1315ZM35.4455 4.45841C35.6039 4.72165 35.6547 5.03584 35.5873 5.33559C35.5199 5.63534 35.3395 5.89755 35.0837 6.06767L35.0548 6.08689L33.851 4.02322C34.1216 3.87614 34.4386 3.83929 34.7357 3.92039C35.0328 4.00148 35.2871 4.19425 35.4455 4.45841Z" fill="#1E8E31"/>
</g>
</svg>

<svg xmlns="http://www.w3.org/2000/svg" width="40" height="40" fill="none"><g fill="#1E8E31"><path d="M3.308 34.192a.625.625 0 0 0 .442.183h8.125a.625.625 0 0 0 .442-.183l1.433-1.433v5.366a.625.625 0 0 0 .625.625h11.25a.625.625 0 0 0 .625-.625v-5.366l1.433 1.433a.625.625 0 0 0 .442.183h8.125a.625.625 0 0 0 .442-.183l1.875-1.875a.625.625 0 0 0 .183-.442V30a.624.624 0 0 0-.625-.625h-2.5A.624.624 0 0 0 35 28.75h-1.25a.624.624 0 0 0-.52.278l-.903 1.355-3.108-2.071-1.416-2.48a5.595 5.595 0 0 0-3.339-2.617l-1.419-.406c.459-.636.706-1.4.705-2.184V17.5a3.223 3.223 0 0 0-2.206-3.06l-1.64-.547a2.777 2.777 0 0 0-3.654 2.633v4.099c0 .784.246 1.548.705 2.184l-1.42.406a5.595 5.595 0 0 0-3.338 2.617l-1.416 2.48-3.108 2.071-.903-1.355a.624.624 0 0 0-.52-.278H5a.625.625 0 0 0-.625.625h-2.5A.625.625 0 0 0 1.25 30v1.875c0 .166.066.325.183.442l1.875 1.875Zm29.817-2.753.96-1.439h.29v1.875h1.25v-1.25H37.5v.991l-1.509 1.509h-2.866v-1.686ZM17.5 16.526a1.527 1.527 0 0 1 2.009-1.448l1.64.547a1.973 1.973 0 0 1 1.25 1.25H17.5v-.349Zm0 1.599h5v2.5a2.5 2.5 0 0 1-5 0v-2.5Zm2.387 8.75h.226l1.084 5.42L20 33.49l-1.197-1.196 1.084-5.42Zm-.618-2.572c.483.096.98.096 1.462 0l-.53 1.322h-.403l-.529-1.322ZM8.125 31.584l3.472-2.314a.626.626 0 0 0 .196-.21l1.49-2.607a4.35 4.35 0 0 1 2.596-2.036l1.875-.536.972 2.429-1.214 6.067a.626.626 0 0 0 .171.565l1.875 1.875a.625.625 0 0 0 .884 0l1.875-1.875a.625.625 0 0 0 .17-.565l-1.213-6.067.972-2.429 1.875.536a4.351 4.351 0 0 1 2.596 2.036l1.49 2.607a.626.626 0 0 0 .196.21l3.472 2.314v1.541h-3.491l-2.317-2.317A.625.625 0 0 0 25 31.25v6.25H15v-6.25a.625.625 0 0 0-1.067-.442l-2.317 2.317H8.125v-1.54ZM2.5 30.625h1.875v1.25h1.25V30h.29l.96 1.44v1.685H4.009L2.5 31.616v-.991Z"/><path d="M1.875 25.625H3.75V27.5a.625.625 0 0 0 .625.625h5A.625.625 0 0 0 10 27.5v-1.875h1.875A.625.625 0 0 0 12.5 25v-2.5a3.129 3.129 0 0 0-3.125-3.125h-5A3.129 3.129 0 0 0 1.25 22.5V25a.625.625 0 0 0 .625.625Zm6.875 1.25H5v-2.5a1.875 1.875 0 1 1 3.75 0v2.5ZM2.5 22.5a1.877 1.877 0 0 1 1.875-1.875h5A1.877 1.877 0 0 1 11.25 22.5v1.875H10a3.125 3.125 0 1 0-6.25 0H2.5V22.5Z"/><path d="M6.875 25.625a.625.625 0 1 0 0-1.25.625.625 0 0 0 0 1.25ZM32.5 16.25a1.877 1.877 0 0 0-1.875 1.875v7.5A1.877 1.877 0 0 0 32.5 27.5h3.75a1.877 1.877 0 0 0 1.875-1.875v-7.5a1.877 1.877 0 0 0-1.875-1.875H32.5Zm4.375 1.875v7.5a.625.625 0 0 1-.625.625H32.5a.625.625 0 0 1-.625-.625v-7.5a.625.625 0 0 1 .625-.625h.366l.442.442a.625.625 0 0 0 .442.183H35a.625.625 0 0 0 .442-.183l.442-.442h.366a.625.625 0 0 1 .625.625ZM5.625 18.125h7.5A1.877 1.877 0 0 0 15 16.25V8.018a1.862 1.862 0 0 0-.55-1.326l-2.392-2.393a1.862 1.862 0 0 0-1.326-.549H5.625A1.877 1.877 0 0 0 3.75 5.625V16.25a1.877 1.877 0 0 0 1.875 1.875Zm6.25-12.241.991.991h-.991v-.991ZM5 5.625A.626.626 0 0 1 5.625 5h5v2.5a.625.625 0 0 0 .625.625h2.5v8.125a.625.625 0 0 1-.625.625h-7.5A.626.626 0 0 1 5 16.25V5.625Z"/><path d="M12.5 14.375H6.25v1.25h6.25v-1.25ZM12.5 11.875H8.75v1.25h3.75v-1.25ZM7.5 11.875H6.25v1.25H7.5v-1.25ZM12.5 9.375h-1.875v1.25H12.5v-1.25ZM9.375 9.375H6.25v1.25h3.125v-1.25ZM9.375 6.875H6.25v1.25h3.125v-1.25ZM33.221 2.943l-.807-1.383a.626.626 0 0 0-.982-.127l-6.178 6.178-2.41 1.205a.621.621 0 0 0-.226.193l-.005.007-.001.001-1.472 2.036a.625.625 0 0 0-.053.646l.853 1.706a.626.626 0 0 0 .56.345h2.113l2.327 4.654a.623.623 0 0 0 .839.28l1.25-.625a.625.625 0 0 0 .345-.559v-3.125a.625.625 0 0 0-.066-.28l-.913-1.826 8.026-2.293a.625.625 0 0 0 .368-.916L35.686 7.17l.091-.061a2.445 2.445 0 0 0-2.556-4.165ZM22.886 12.5l-.511-1.021.652-.902.961 1.923h-1.102Zm1.077-2.845 1.382-.691 1.316 2.631-1.382.691-1.316-2.631Zm4.161 7.459-.345.172-1.941-3.882 1.382-.69.904 1.809v2.59Zm-.298-5.982-1.441-2.884 5.358-5.358 3.561 6.105-7.478 2.137Zm7.62-6.674a1.194 1.194 0 0 1-.362 1.61l-.03.019-1.203-2.064a1.194 1.194 0 0 1 1.595.435Z"/></g></svg>
